; G-Code generated by Simplify3D(R) Version 4.1.2
; Aug 29, 2021 at 7:26:02 PM
; Settings Summary
;   processName,Process1
;   applyToModels,bezel_set(1)(2),bezel_set(1)(3)
;   profileName,Creality Ender 3 (modified)
;   profileVersion,2021-05-23 19:58:39
;   baseProfile,
;   printMaterial,PETG
;   printQuality,Medium
;   printExtruders,
;   extruderName,Primary Extruder
;   extruderToolheadNumber,0
;   extruderDiameter,0.4
;   extruderAutoWidth,1
;   extruderWidth,0.48
;   extrusionMultiplier,0.9
;   extruderUseRetract,1
;   extruderRetractionDistance,4
;   extruderExtraRestartDistance,0
;   extruderRetractionZLift,0
;   extruderRetractionSpeed,2400
;   extruderUseCoasting,0
;   extruderCoastingDistance,0.2
;   extruderUseWipe,0
;   extruderWipeDistance,5
;   primaryExtruder,0
;   layerHeight,0.25
;   topSolidLayers,3
;   bottomSolidLayers,3
;   perimeterOutlines,3
;   printPerimetersInsideOut,1
;   startPointOption,1
;   startPointOriginX,0
;   startPointOriginY,0
;   sequentialIslands,0
;   spiralVaseMode,0
;   firstLayerHeightPercentage,80
;   firstLayerWidthPercentage,150
;   firstLayerUnderspeed,0.3
;   useRaft,0
;   raftExtruder,0
;   raftTopLayers,3
;   raftBaseLayers,2
;   raftOffset,3
;   raftSeparationDistance,0.14
;   raftTopInfill,100
;   aboveRaftSpeedMultiplier,0.3
;   useSkirt,1
;   skirtExtruder,0
;   skirtLayers,1
;   skirtOutlines,2
;   skirtOffset,0
;   usePrimePillar,0
;   primePillarExtruder,999
;   primePillarWidth,12
;   primePillarLocation,7
;   primePillarSpeedMultiplier,1
;   useOozeShield,0
;   oozeShieldExtruder,999
;   oozeShieldOffset,2
;   oozeShieldOutlines,1
;   oozeShieldSidewallShape,1
;   oozeShieldSidewallAngle,30
;   oozeShieldSpeedMultiplier,1
;   infillExtruder,0
;   internalInfillPattern,Rectilinear
;   externalInfillPattern,Rectilinear
;   infillPercentage,20
;   outlineOverlapPercentage,15
;   infillExtrusionWidthPercentage,100
;   minInfillLength,5
;   infillLayerInterval,1
;   internalInfillAngles,45,-45
;   overlapInternalInfillAngles,0
;   externalInfillAngles,45,-45
;   generateSupport,1
;   supportExtruder,0
;   supportInfillPercentage,30
;   supportExtraInflation,0.8
;   supportBaseLayers,0
;   denseSupportExtruder,0
;   denseSupportLayers,0
;   denseSupportInfillPercentage,70
;   supportLayerInterval,1
;   supportHorizontalPartOffset,0.3
;   supportUpperSeparationLayers,1
;   supportLowerSeparationLayers,1
;   supportType,0
;   supportGridSpacing,4
;   maxOverhangAngle,45
;   supportAngles,0
;   temperatureName,Primary Extruder,Heated Bed
;   temperatureNumber,0,0
;   temperatureSetpointCount,2,1
;   temperatureSetpointLayers,1,2,1
;   temperatureSetpointTemperatures,240,235,100
;   temperatureStabilizeAtStartup,1,1
;   temperatureHeatedBed,0,1
;   fanLayers,1,2
;   fanSpeeds,0,100
;   blipFanToFullPower,0
;   adjustSpeedForCooling,1
;   minSpeedLayerTime,15
;   minCoolingSpeedSlowdown,20
;   increaseFanForCooling,0
;   minFanLayerTime,45
;   maxCoolingFanSpeed,100
;   increaseFanForBridging,0
;   bridgingFanSpeed,100
;   use5D,1
;   relativeEdistances,0
;   allowEaxisZeroing,1
;   independentExtruderAxes,0
;   includeM10123,0
;   stickySupport,1
;   applyToolheadOffsets,0
;   gcodeXoffset,0
;   gcodeYoffset,0
;   gcodeZoffset,0
;   overrideMachineDefinition,1
;   machineTypeOverride,0
;   strokeXoverride,220
;   strokeYoverride,220
;   strokeZoverride,250
;   originOffsetXoverride,-5
;   originOffsetYoverride,-5
;   originOffsetZoverride,0
;   homeXdirOverride,-1
;   homeYdirOverride,-1
;   homeZdirOverride,-1
;   flipXoverride,1
;   flipYoverride,-1
;   flipZoverride,1
;   toolheadOffsets,0,0|0,0|0,0|0,0|0,0|0,0
;   overrideFirmwareConfiguration,1
;   firmwareTypeOverride,RepRap (Marlin/Repetier/Sprinter)
;   GPXconfigOverride,r2
;   baudRateOverride,115200
;   overridePrinterModels,1
;   printerModelsOverride
;   startingGcode,G28 ; home all axes,G1 X5 Y10 Z0.2 F3000 ; get ready to prime,G92 E0 ; reset extrusion distance,G1 X160 E15 F600 ; prime nozzle,G1 X180 F5000 ; quick wipe
;   layerChangeGcode,
;   retractionGcode,
;   toolChangeGcode,
;   endingGcode,G28 X0 ; home X axis,M106 S0 ; turn off cooling fan,M104 S0 ; turn off extruder,M140 S0 ; turn off bed,M84 ; disable motors
;   exportFileFormat,gcode
;   celebration,0
;   celebrationSong,Funky Town
;   postProcessing,
;   defaultSpeed,2400
;   outlineUnderspeed,0.5
;   solidInfillUnderspeed,0.8
;   supportUnderspeed,0.8
;   rapidXYspeed,4800
;   rapidZspeed,1002
;   minBridgingArea,50
;   bridgingExtraInflation,0
;   bridgingExtrusionMultiplier,1
;   bridgingSpeedMultiplier,1
;   useFixedBridgingAngle,0
;   fixedBridgingAngle,0
;   applyBridgingToPerimeters,0
;   filamentDiameters,1.75|1.75|1.75|1.75|1.75|1.75
;   filamentPricesPerKg,46|46|46|46|46|46
;   filamentDensities,1.25|1.25|1.25|1.25|1.25|1.25
;   useMinPrintHeight,0
;   minPrintHeight,0
;   useMaxPrintHeight,0
;   maxPrintHeight,0
;   useDiaphragm,0
;   diaphragmLayerInterval,20
;   robustSlicing,1
;   mergeAllIntoSolid,0
;   onlyRetractWhenCrossingOutline,1
;   retractBetweenLayers,1
;   useRetractionMinTravel,0
;   retractionMinTravel,3
;   retractWhileWiping,0
;   onlyWipeOutlines,1
;   avoidCrossingOutline,0
;   maxMovementDetourFactor,3
;   toolChangeRetractionDistance,12
;   toolChangeExtraRestartDistance,-0.5
;   toolChangeRetractionSpeed,600
;   externalThinWallType,0
;   internalThinWallType,2
;   thinWallAllowedOverlapPercentage,10
;   singleExtrusionMinLength,1
;   singleExtrusionMinPrintingWidthPercentage,50
;   singleExtrusionMaxPrintingWidthPercentage,200
;   singleExtrusionEndpointExtension,0.2
;   horizontalSizeCompensation,0
G90
M82
M106 S0
M140 S100
M190 S100
M104 S240 T0
M109 S240 T0
G28 ; home all axes
G1 X5 Y10 Z0.2 F3000 ; get ready to prime
G92 E0 ; reset extrusion distance
G1 X160 E15 F600 ; prime nozzle
G1 X180 F5000 ; quick wipe
; process Process1
; layer 1, Z = 0.200
T0
G92 E0.0000
G1 E-4.0000 F2400
; feature skirt
; tool H0.200 W0.720
G1 Z0.200 F1002
G1 X155.100 Y115.711 F4800
G1 E0.0000 F2400
G92 E0.0000
G1 X154.467 Y116.344 E0.0482 F720
G1 X75.533 Y116.344 E4.3013
G1 X74.900 Y115.711 E4.3495
G1 X74.900 Y72.776 E6.6629
G1 X75.533 Y72.144 E6.7111
G1 X154.467 Y72.144 E10.9642
G1 X155.100 Y72.776 E11.0124
G1 X155.100 Y115.711 E13.3258
G92 E0.0000
G1 E-4.0000 F2400
G1 X154.380 Y115.413 F4800
G1 E0.0000 F2400
G92 E0.0000
G1 X154.169 Y115.624 E0.0161 F720
G1 X75.831 Y115.624 E4.2370
G1 X75.620 Y115.413 E4.2531
G1 X75.620 Y73.075 E6.5344
G1 X75.831 Y72.864 E6.5504
G1 X154.169 Y72.864 E10.7714
G1 X154.380 Y73.075 E10.7875
G1 X154.380 Y115.413 E13.0687
G92 E0.0000
G1 E-4.0000 F2400
G1 X154.460 Y121.935 F4800
G1 E0.0000 F2400
G92 E0.0000
G1 X155.093 Y122.568 E0.0482 F720
G1 X155.093 Y161.502 E2.1461
G1 X154.460 Y162.135 E2.1943
G1 X75.526 Y162.135 E6.4474
G1 X74.893 Y161.502 E6.4956
G1 X74.893 Y122.568 E8.5934
G1 X75.526 Y121.935 E8.6417
G1 X154.460 Y121.935 E12.8948
G92 E0.0000
G1 E-4.0000 F2400
G1 X154.162 Y122.655 F4800
G1 E0.0000 F2400
G92 E0.0000
G1 X154.373 Y122.866 E0.0161 F720
G1 X154.373 Y161.204 E2.0818
G1 X154.162 Y161.415 E2.0979
G1 X75.824 Y161.415 E6.3188
G1 X75.613 Y161.204 E6.3349
G1 X75.613 Y122.866 E8.4006
G1 X75.824 Y122.655 E8.4167
G1 X154.162 Y122.655 E12.6377
G92 E0.0000
G1 E-4.0000 F2400
; feature support
G1 X76.350 Y113.939 F4800
G1 E0.0000 F2400
G92 E0.0000
G1 X153.650 Y113.939 E4.1650 F576
G1 X153.650 Y112.339 E4.2512
G1 X76.350 Y112.339 E8.4163
G1 X76.350 Y110.739 E8.5025
G1 X153.650 Y110.739 E12.6675
G1 X153.650 Y109.139 E12.7537
G1 X76.350 Y109.139 E16.9188
G1 X76.350 Y107.539 E17.0050
G1 X153.650 Y107.539 E21.1700
G1 X153.650 Y105.939 E21.2562
G1 X76.350 Y105.939 E25.4213
G1 X76.350 Y104.339 E25.5075
G1 X85.650 Y104.339 E26.0086
G1 X85.650 Y102.739 E26.0948
G1 X76.350 Y102.739 E26.5959
G1 X76.350 Y101.139 E26.6821
G1 X85.650 Y101.139 E27.1832
G1 X85.650 Y99.539 E27.2694
G1 X76.350 Y99.539 E27.7705
G1 X76.350 Y97.939 E27.8567
G1 X85.650 Y97.939 E28.3578
G1 X85.650 Y96.339 E28.4440
G1 X76.350 Y96.339 E28.9451
G1 X76.350 Y94.739 E29.0313
G1 X85.650 Y94.739 E29.5324
G1 X85.650 Y93.139 E29.6186
G1 X76.350 Y93.139 E30.1197
G1 X76.350 Y91.539 E30.2059
G1 X85.650 Y91.539 E30.7070
G1 X85.650 Y89.939 E30.7932
G1 X76.350 Y89.939 E31.2943
G1 X76.350 Y88.339 E31.3805
G1 X85.650 Y88.339 E31.8816
G1 X85.650 Y86.739 E31.9678
G1 X76.350 Y86.739 E32.4689
G1 X76.350 Y85.139 E32.5552
G1 X85.650 Y85.139 E33.0563
G1 X85.650 Y83.539 E33.1425
G1 X76.350 Y83.539 E33.6436
G1 X76.350 Y81.939 E33.7298
G1 X153.650 Y81.939 E37.8948
G1 X153.650 Y80.339 E37.9810
G1 X76.350 Y80.339 E42.1460
G1 X76.350 Y78.739 E42.2323
G1 X153.650 Y78.739 E46.3973
G1 X153.650 Y77.139 E46.4835
G1 X76.350 Y77.139 E50.6485
G1 X76.350 Y75.539 E50.7347
G1 X153.650 Y75.539 E54.8998
G1 X153.650 Y73.939 E54.9860
G1 X76.350 Y73.939 E59.1510
G92 E0.0000
G1 E-4.0000 F2400
G1 X92.350 Y83.539 F4800
G1 E0.0000 F2400
G92 E0.0000
G1 X153.650 Y83.539 E3.3029 F576
G1 X153.650 Y85.139 E3.3891
G1 X92.350 Y85.139 E6.6921
G1 X92.350 Y85.594 E6.7166
G1 X88.350 Y85.594 E6.9321
G1 X88.350 Y86.739 E6.9938
G1 X153.650 Y86.739 E10.5123
G1 X153.650 Y88.339 E10.5985
G1 X88.350 Y88.339 E14.1169
G1 X88.350 Y89.939 E14.2031
G1 X153.650 Y89.939 E17.7216
G1 X153.650 Y91.539 E17.8078
G1 X140.350 Y91.539 E18.5244
G1 X140.350 Y90.894 E18.5592
G1 X97.650 Y90.894 E20.8600
G1 X97.650 Y91.539 E20.8947
G1 X92.350 Y91.539 E21.1803
G1 X92.350 Y93.139 E21.2665
G1 X97.650 Y93.139 E21.5521
G1 X97.650 Y94.739 E21.6383
G1 X92.350 Y94.739 E21.9239
G1 X92.350 Y96.339 E22.0101
G1 X97.650 Y96.339 E22.2957
G1 X97.650 Y97.594 E22.3632
G1 X140.350 Y97.594 E24.6640
G1 X140.350 Y96.339 E24.7316
G1 X153.650 Y96.339 E25.4482
G1 X153.650 Y97.939 E25.5344
G1 X88.350 Y97.939 E29.0529
G1 X88.350 Y99.539 E29.1391
G1 X153.650 Y99.539 E32.6575
G1 X153.650 Y101.139 E32.7437
G1 X88.350 Y101.139 E36.2622
G1 X88.350 Y102.739 E36.3484
G1 X153.650 Y102.739 E39.8669
G1 X153.650 Y104.339 E39.9531
G1 X92.350 Y104.339 E43.2560
G92 E0.0000
G1 E-4.0000 F2400
G1 X76.343 Y123.539 F4800
G1 E0.0000 F2400
G92 E0.0000
G1 X153.643 Y123.539 E4.1650 F576
G1 X153.643 Y125.139 E4.2512
G1 X76.343 Y125.139 E8.4163
G1 X76.343 Y126.739 E8.5025
G1 X153.643 Y126.739 E12.6675
G1 X153.643 Y128.339 E12.7537
G1 X76.343 Y128.339 E16.9188
G1 X76.343 Y129.939 E17.0050
G1 X153.643 Y129.939 E21.1700
G1 X153.643 Y131.539 E21.2562
G1 X76.343 Y131.539 E25.4213
G1 X76.343 Y133.139 E25.5075
G1 X153.643 Y133.139 E29.6725
G1 X153.643 Y134.739 E29.7587
G1 X76.343 Y134.739 E33.9237
G1 X76.343 Y136.339 E34.0100
G1 X153.643 Y136.339 E38.1750
G1 X153.643 Y137.939 E38.2612
G1 X76.343 Y137.939 E42.4262
G1 X76.343 Y139.539 E42.5124
G1 X153.643 Y139.539 E46.6775
G1 X153.643 Y141.139 E46.7637
G1 X76.343 Y141.139 E50.9287
G1 X76.343 Y142.739 E51.0149
G1 X153.643 Y142.739 E55.1800
G1 X153.643 Y144.339 E55.2662
G1 X76.343 Y144.339 E59.4312
G1 X76.343 Y145.939 E59.5174
G1 X153.643 Y145.939 E63.6824
G1 X153.643 Y147.539 E63.7687
G1 X76.343 Y147.539 E67.9337
G1 X76.343 Y149.139 E68.0199
G1 X153.643 Y149.139 E72.1849
G1 X153.643 Y150.739 E72.2711
G1 X76.343 Y150.739 E76.4362
G1 X76.343 Y152.339 E76.5224
G1 X153.643 Y152.339 E80.6874
G1 X153.643 Y153.939 E80.7736
G1 X76.343 Y153.939 E84.9387
G1 X76.343 Y155.539 E85.0249
G1 X153.643 Y155.539 E89.1899
G1 X153.643 Y157.139 E89.2761
G1 X76.343 Y157.139 E93.4412
G1 X76.343 Y158.739 E93.5274
G1 X153.643 Y158.739 E97.6924
G1 X153.643 Y160.339 E97.7786
G1 X76.343 Y160.339 E101.9436
G92 E0.0000
G1 E-4.0000 F2400
G1 X140.350 Y93.139 F4800
G1 E0.0000 F2400
G92 E0.0000
G1 X153.650 Y93.139 E0.7166 F576
G1 X153.650 Y94.739 E0.8028
G1 X140.350 Y94.739 E1.5195
G92 E0.0000
G1 E-4.0000 F2400
; layer 2, Z = 0.450
M106 S255
M104 S235 T0
; tool H0.250 W0.480
G1 Z0.450 F1002
G1 X140.230 Y94.739 F4800
G1 E0.0000 F2400
G92 E0.0000
G1 X153.770 Y94.739 E0.6080 F1920
G1 X153.770 Y93.139 E0.6798
G1 X140.230 Y93.139 E1.2878
G92 E0.0000
G1 E-4.0000 F2400
G1 X92.230 Y83.539 F4800
G1 E0.0000 F2400
G92 E0.0000
G1 X153.770 Y83.539 E2.7632 F1920
G1 X153.770 Y85.139 E2.8351
G1 X92.230 Y85.139 E5.5983
G1 X92.230 Y85.474 E5.6133
G1 X88.230 Y85.474 E5.7929
G1 X88.230 Y86.739 E5.8497
G1 X153.770 Y86.739 E8.7925
G1 X153.770 Y88.339 E8.8644
G1 X88.230 Y88.339 E11.8072
G1 X88.230 Y89.939 E11.8791
G1 X153.770 Y89.939 E14.8219
G1 X153.770 Y91.539 E14.8937
G1 X140.230 Y91.539 E15.5017
G1 X140.230 Y91.014 E15.5253
G1 X97.770 Y91.014 E17.4318
G1 X97.770 Y91.539 E17.4554
G1 X92.230 Y91.539 E17.7041
G1 X92.230 Y93.139 E17.7760
G1 X97.770 Y93.139 E18.0247
G1 X97.770 Y94.739 E18.0966
G1 X92.230 Y94.739 E18.3453
G1 X92.230 Y96.339 E18.4172
G1 X97.770 Y96.339 E18.6659
G1 X97.770 Y97.474 E18.7169
G1 X140.230 Y97.474 E20.6234
G1 X140.230 Y96.339 E20.6743
G1 X153.770 Y96.339 E21.2823
G1 X153.770 Y97.939 E21.3541
G1 X88.230 Y97.939 E24.2969
G1 X88.230 Y99.539 E24.3688
G1 X153.770 Y99.539 E27.3116
G1 X153.770 Y101.139 E27.3834
G1 X88.230 Y101.139 E30.3263
G1 X88.230 Y102.739 E30.3981
G1 X153.770 Y102.739 E33.3409
G1 X153.770 Y104.339 E33.4128
G1 X92.230 Y104.339 E36.1760
G92 E0.0000
G1 E-4.0000 F2400
G1 X76.230 Y113.939 F4800
G1 E0.0000 F2400
G92 E0.0000
G1 X153.770 Y113.939 E3.4816 F1920
G1 X153.770 Y112.339 E3.5535
G1 X76.230 Y112.339 E7.0351
G1 X76.230 Y110.739 E7.1070
G1 X153.770 Y110.739 E10.5886
G1 X153.770 Y109.139 E10.6604
G1 X76.230 Y109.139 E14.1421
G1 X76.230 Y107.539 E14.2139
G1 X153.770 Y107.539 E17.6956
G1 X153.770 Y105.939 E17.7674
G1 X76.230 Y105.939 E21.2490
G1 X76.230 Y104.339 E21.3209
G1 X85.770 Y104.339 E21.7492
G1 X85.770 Y102.739 E21.8211
G1 X76.230 Y102.739 E22.2494
G1 X76.230 Y101.139 E22.3213
G1 X85.770 Y101.139 E22.7496
G1 X85.770 Y99.539 E22.8215
G1 X76.230 Y99.539 E23.2498
G1 X76.230 Y97.939 E23.3217
G1 X85.770 Y97.939 E23.7500
G1 X85.770 Y96.339 E23.8219
G1 X76.230 Y96.339 E24.2502
G1 X76.230 Y94.739 E24.3221
G1 X85.770 Y94.739 E24.7504
G1 X85.770 Y93.139 E24.8223
G1 X76.230 Y93.139 E25.2506
G1 X76.230 Y91.539 E25.3225
G1 X85.770 Y91.539 E25.7508
G1 X85.770 Y89.939 E25.8227
G1 X76.230 Y89.939 E26.2510
G1 X76.230 Y88.339 E26.3229
G1 X85.770 Y88.339 E26.7512
G1 X85.770 Y86.739 E26.8231
G1 X76.230 Y86.739 E27.2514
G1 X76.230 Y85.139 E27.3233
G1 X85.770 Y85.139 E27.7516
G1 X85.770 Y83.539 E27.8235
G1 X76.230 Y83.539 E28.2518
G1 X76.230 Y81.939 E28.3237
G1 X153.770 Y81.939 E31.8053
G1 X153.770 Y80.339 E31.8771
G1 X76.230 Y80.339 E35.3588
G1 X76.230 Y78.739 E35.4306
G1 X153.770 Y78.739 E38.9123
G1 X153.770 Y77.139 E38.9841
G1 X76.230 Y77.139 E42.4657
G1 X76.230 Y75.539 E42.5376
G1 X153.770 Y75.539 E46.0192
G1 X153.770 Y73.939 E46.0911
G1 X76.230 Y73.939 E49.5727
G92 E0.0000
G1 E-4.0000 F2400
G1 X76.223 Y123.539 F4800
G1 E0.0000 F2400
G92 E0.0000
G1 X153.763 Y123.539 E3.4816 F1920
G1 X153.763 Y125.139 E3.5535
G1 X76.223 Y125.139 E7.0351
G1 X76.223 Y126.739 E7.1070
G1 X153.763 Y126.739 E10.5886
G1 X153.763 Y128.339 E10.6604
G1 X76.223 Y128.339 E14.1421
G1 X76.223 Y129.939 E14.2139
G1 X153.763 Y129.939 E17.6956
G1 X153.763 Y131.539 E17.7674
G1 X76.223 Y131.539 E21.2490
G1 X76.223 Y133.139 E21.3209
G1 X153.763 Y133.139 E24.8025
G1 X153.763 Y134.739 E24.8744
G1 X76.223 Y134.739 E28.3560
G1 X76.223 Y136.339 E28.4278
G1 X153.763 Y136.339 E31.9095
G1 X153.763 Y137.939 E31.9813
G1 X76.223 Y137.939 E35.4630
G1 X76.223 Y139.539 E35.5348
G1 X153.763 Y139.539 E39.0164
G1 X153.763 Y141.139 E39.0883
G1 X76.223 Y141.139 E42.5699
G1 X76.223 Y142.739 E42.6418
G1 X153.763 Y142.739 E46.1234
G1 X153.763 Y144.339 E46.1952
G1 X76.223 Y144.339 E49.6769
G1 X76.223 Y145.939 E49.7487
G1 X153.763 Y145.939 E53.2304
G1 X153.763 Y147.539 E53.3022
G1 X76.223 Y147.539 E56.7838
G1 X76.223 Y149.139 E56.8557
G1 X153.763 Y149.139 E60.3373
G1 X153.763 Y150.739 E60.4092
G1 X76.223 Y150.739 E63.8908
G1 X76.223 Y152.339 E63.9626
G1 X153.763 Y152.339 E67.4443
G1 X153.763 Y153.939 E67.5161
G1 X76.223 Y153.939 E70.9977
G1 X76.223 Y155.539 E71.0696
G1 X153.763 Y155.539 E74.5512
G1 X153.763 Y157.139 E74.6231
G1 X76.223 Y157.139 E78.1047
G1 X76.223 Y158.739 E78.1766
G1 X153.763 Y158.739 E81.6582
G1 X153.763 Y160.339 E81.7300
G1 X76.223 Y160.339 E85.2117
G92 E0.0000
G1 E-4.0000 F2400
